public/images/hashed/3431234f3eeb4be8758c10267523c348.svg

<?xml version="1.0" encoding="UTF-8"?>
<svg width="80px" height="80px" viewBox="0 0 80 80" version="1.1" xmlns="http://www.w3.org/2000/svg" xmlns:xlink="http://www.w3.org/1999/xlink">
    <!-- Generator: Sketch 64 (93537) - https://sketch.com -->
    <title>Icon-Architecture/64/Arch_AWS-Elastic-Beanstalk_64</title>
    <desc>Created with Sketch.</desc>
    <defs>
        <linearGradient x1="0%" y1="100%" x2="100%" y2="0%" id="linearGradient-1">
            <stop stop-color="#C8511B" offset="0%"></stop>
            <stop stop-color="#FF9900" offset="100%"></stop>
        </linearGradient>
    </defs>
    <g id="Icon-Architecture/64/Arch_AWS-Elastic-Beanstalk_64" stroke="none" stroke-width="1" fill="none" fill-rule="evenodd">
        <g id="Icon-Architecture-BG/64/Compute" fill="url(#linearGradient-1)">
            <rect id="Rectangle" x="0" y="0" width="80" height="80"></rect>
        </g>
        <path d="M50.4868099,45.9605228 C50.4868099,44.3028952 49.1425853,42.9539432 47.4907669,42.9539432 C45.8389486,42.9539432 44.4947239,44.3028952 44.4947239,45.9605228 C44.4947239,47.6181503 45.8389486,48.9671023 47.4907669,48.9671023 C49.1425853,48.9671023 50.4868099,47.6181503 50.4868099,45.9605228 M39.501319,35.938591 C41.1531374,35.938591 42.497362,34.5896389 42.497362,32.9320114 C42.497362,31.2743839 41.1531374,29.9254319 39.501319,29.9254319 C37.8495007,29.9254319 36.5052761,31.2743839 36.5052761,32.9320114 C36.5052761,34.5896389 37.8495007,35.938591 39.501319,35.938591 M30.5131901,46.9627159 C32.1650085,46.9627159 33.5092331,45.6137639 33.5092331,43.9561364 C33.5092331,42.2985089 32.1650085,40.9495569 30.5131901,40.9495569 C28.8613718,40.9495569 27.5171472,42.2985089 27.5171472,43.9561364 C27.5171472,45.6137639 28.8613718,46.9627159 30.5131901,46.9627159 M52.4841718,45.9605228 C52.4841718,48.3808193 50.7654419,50.4042473 48.4894479,50.8702672 L48.4894479,56.9846477 C48.4894479,57.5378584 48.0430375,57.9868409 47.4907669,57.9868409 L40.5,57.9868409 L40.5,64 L38.502638,64 L38.502638,52.975875 L30.5131901,52.975875 C29.9609195,52.975875 29.5145091,52.5268925 29.5145091,51.9736818 L29.5145091,48.8658808 C27.2385152,48.399861 25.5197852,46.3764329 25.5197852,43.9561364 C25.5197852,41.1930898 27.7598266,38.9451705 30.5131901,38.9451705 C33.2665536,38.9451705 35.5065951,41.1930898 35.5065951,43.9561364 C35.5065951,46.3764329 33.7878651,48.399861 31.5118711,48.8658808 L31.5118711,50.9714887 L38.502638,50.9714887 L38.502638,37.8417558 C36.2266441,37.375736 34.5079141,35.352308 34.5079141,32.9320114 C34.5079141,30.1689648 36.7479555,27.9210455 39.501319,27.9210455 C42.2546825,27.9210455 44.4947239,30.1689648 44.4947239,32.9320114 C44.4947239,35.352308 42.775994,37.375736 40.5,37.8417558 L40.5,55.9824546 L46.4920859,55.9824546 L46.4920859,50.8702672 C44.216092,50.4042473 42.497362,48.3808193 42.497362,45.9605228 C42.497362,43.1974762 44.7374034,40.9495569 47.4907669,40.9495569 C50.2441304,40.9495569 52.4841718,43.1974762 52.4841718,45.9605228 M67,41.0116928 C67,48.3547623 61.5442058,50.9714887 56.4389486,50.9714887 L56.4389486,48.9671023 C59.0135481,48.9671023 65.002638,48.1914048 65.002638,41.0116928 C65.002638,35.6399374 60.9320143,33.6926761 57.517524,33.0051715 C57.0721123,32.9159763 56.7435463,32.5361451 56.7165819,32.0821516 C56.468909,27.8749446 54.0261353,26.3816768 52.007801,26.3816768 C50.6436028,26.3816768 49.3642924,27.0341046 48.498436,28.172596 C48.2777275,28.4642342 47.9142077,28.6125588 47.5546825,28.556436 C47.1951573,28.5023176 46.892557,28.2547759 46.7667232,27.9110236 C45.984756,25.7793587 44.8622386,23.9934505 43.4291313,22.6024063 C39.7469945,19.0195657 34.7106463,18.0474383 29.9549275,20.0047216 C26.0061428,21.6182526 22.9142265,26.2834619 22.9142265,30.6259649 C22.9142265,31.1060155 22.9431882,31.5880704 23.0021104,32.0591012 C23.0640286,32.5632043 22.7414547,33.0342351 22.2511023,33.1555005 C19.9151875,33.7357704 15.997362,35.5176698 15.997362,40.9365284 C15.997362,41.141978 16.0063501,41.3384078 16.0163369,41.5238136 C16.2500283,45.6959438 19.9331637,48.9671023 24.4022612,48.9671023 L25.5197852,48.9671023 L25.5197852,50.9714887 L24.4022612,50.9714887 C18.8745619,50.9714887 14.3145845,46.869512 14.021971,41.6330526 C14.0109855,41.4105657 14,41.1790591 14,40.9365284 C14,34.6397486 18.3512531,32.2876012 20.9408329,31.4477633 C20.9238553,31.1741646 20.9168645,30.8995637 20.9168645,30.6259649 C20.9168645,25.4416196 24.4781609,20.0778817 29.2009233,18.149662 C34.7096476,15.8837032 40.5489354,17.008164 44.8182966,21.1622547 C46.1315621,22.4360423 47.2141323,23.9864351 48.0480309,25.7843697 C49.1735444,24.8773848 50.5547202,24.3772904 52.007801,24.3772904 C54.9668928,24.3772904 58.0767854,26.4959268 58.6430375,31.2032282 C64.0399096,32.5241188 67,35.9846919 67,41.0116928" id="AWS-Elastic-Beanstalk_Icon_64_Squid" fill="#FFFFFF"></path>
    </g>
</svg>

<svg xmlns="http://www.w3.org/2000/svg" width="80" height="80"><defs><linearGradient id="a" x1="0%" x2="100%" y1="100%" y2="0%"><stop offset="0%" stop-color="#C8511B"/><stop offset="100%" stop-color="#F90"/></linearGradient></defs><g fill="none" fill-rule="evenodd"><path fill="url(#a)" d="M0 0h80v80H0z"/><path fill="#FFF" d="M50.487 45.96a3.005 3.005 0 0 0-2.996-3.006 3.005 3.005 0 0 0-2.996 3.007 3.005 3.005 0 0 0 2.996 3.006 3.005 3.005 0 0 0 2.996-3.006M39.5 35.939a3.005 3.005 0 0 0 2.996-3.007 3.005 3.005 0 0 0-2.996-3.007 3.005 3.005 0 0 0-2.996 3.007 3.005 3.005 0 0 0 2.996 3.007m-8.988 11.024a3.005 3.005 0 0 0 2.996-3.007 3.005 3.005 0 0 0-2.996-3.006 3.005 3.005 0 0 0-2.996 3.006 3.005 3.005 0 0 0 2.996 3.007m21.971-1.002a5.015 5.015 0 0 1-3.995 4.91v6.114a1 1 0 0 1-.998 1.002H40.5V64h-1.997V52.976h-7.99a1 1 0 0 1-.998-1.002v-3.108a5.015 5.015 0 0 1-3.995-4.91c0-2.763 2.24-5.01 4.993-5.01 2.754 0 4.994 2.247 4.994 5.01a5.015 5.015 0 0 1-3.995 4.91v2.105h6.99v-13.13a5.015 5.015 0 0 1-3.994-4.909c0-2.763 2.24-5.011 4.993-5.011 2.754 0 4.994 2.248 4.994 5.011a5.015 5.015 0 0 1-3.995 4.91v18.14h5.992V50.87a5.015 5.015 0 0 1-3.995-4.91c0-2.763 2.24-5.01 4.994-5.01 2.753 0 4.993 2.247 4.993 5.01M67 41.013c0 7.343-5.456 9.96-10.561 9.96v-2.005c2.575 0 8.564-.776 8.564-7.955 0-5.372-4.071-7.32-7.485-8.007a1 1 0 0 1-.801-.923c-.248-4.207-2.69-5.7-4.71-5.7-1.363 0-2.643.652-3.509 1.79a.999.999 0 0 1-1.732-.262c-.781-2.13-1.904-3.917-3.337-5.308-3.682-3.582-8.718-4.555-13.474-2.597-3.949 1.613-7.04 6.278-7.04 10.621 0 .48.028.962.087 1.433.062.504-.26.975-.75 1.097-2.337.58-6.255 2.362-6.255 7.78 0 .206.01.402.02.588.233 4.172 3.916 7.443 8.385 7.443h1.118v2.004h-1.118c-5.527 0-10.087-4.101-10.38-9.338a13.936 13.936 0 0 1-.022-.696c0-6.297 4.351-8.65 6.94-9.49a13.28 13.28 0 0 1-.023-.821c0-5.184 3.561-10.548 8.284-12.476 5.509-2.266 11.348-1.142 15.617 3.012 1.314 1.274 2.396 2.824 3.23 4.622a6.285 6.285 0 0 1 3.96-1.407c2.959 0 6.069 2.119 6.635 6.826C64.04 32.524 67 35.985 67 41.012"/></g></svg>
